X: 8
M: 4/4
L: 1/8
K: D
|: FE |\
|: fg |\
a2 f2 b2 ag | a2 d2 d2 ef | g2 e2 f2 d2 | ed cB A2 fg |
a2 f2 b2 ag | a2 d2 d2 e2 | fa fd eg ec | d2 d2 d2 :|


